X:1
T:A minor James P. Carrell, 1821
T:Anonymous, before 1820         99. 669.
T:Solemn Thought
T:Transcribed from Songs of Zion, 1821
%%score [ 1 2 3 4 ]
L:1/8
Q:1/4=120
M:4/4
K:C
V:1 treble nm="Tr." snm="Tr."
V:2 treble nm="C." snm="C."
V:3 treble-8 nm="T." snm="T."
V:4 bass nm="B." snm="B."
V:1
"^1. Remember, sinful youth, you must die, you must die, Remember, sinful  youth, you must die.          Remember,  sinful   youth,  If\n2. Uncertain are your  days,  here  below,    here  below,     Uncertain  are  your  days,  here be– low.         Un–cer–tain are your days,  For" c4 | %1
 A2 A2 c2 d2 | e4 e2 e2 | d4 d2 e2 | g4 e4 | c2 c2 A2 c2 | e4 e2 B2 | A8 | z4 d4 | c2 c2 A2 c2 | %10
 d4 d4 | %11
"^1. you  deny  the  truth,  Through vast  e-ter-ni-ty,  you must die, you must die, Through  vast   e –ter –ni –ty,      you   must   die. \n2. God hath many ways  To bring you to your graves,  here below,  here below,    To  bring you to your graves,       here   be  – low." e2 e2 c2 c2 | %12
 d4 c4 | G2 A2 c2 d2 | e4 e2 e2 | d4 d2 e2 | g4 e4 | c2 c2 A2 d2 | e4 e2 B2 | A8 |] %20
V:2
"^3. The God that built the sky,  great  I  Am, great  I  Am, The  God  that  built  the  sky,  great I  Am.      The  God that built the sky,  Hath" E4 | %1
 A2 A2 A2 B2 | A4 E2 E2 | G4 G2 A2 | G4 E4 | A2 A2 A2 G2 | (A3 B) A2 G2 | E8 | z4 G4 | %9
 E2 E2 E2 E2 | G4 (G3 A) | %11
"^3. said  and  cannot  lie,   Im –penitents  shall  die, and be damned, and be damned, Im – pen–i–tents  shall  die, and  be  damned." c2 c2 A2 c2 | %12
 G4 E4 | G2 A2 A2 G2 | E4 E2 E2 | G4 G2 A2 | G4 E4 | A2 A2 A2 G2 | (A3 B) A2 G2 | E8 |] %20
V:3
"^4. Come then, my friends, don't you, I entreat, I entreat, Come then, my friends, don't you, I entreat. Come then my friends, don’t you Your \n5. But to the  Sa – vior  flee, 'scape for life, 'scape for life,  But  to  the  Savior  flee, 'scape   for   life.          But    to   the   Savior   flee,  Lest" A4 | %1
 c2 c2 A2 G2 | A4 A2 E2 | G4 G2 E2 | G4 A4 | c2 c2 A2 G2 | (A3 G) E2 G2 | A8 | z4 G4 | %9
 A2 A2 c2 e2 | d4 G4 | %11
"^4.  sinful  ways  pursue,  Your  precious  souls  undo,   I   en – treat,   I   en– treat,  Your   precious  souls  un – do,      I      en – treat.\n5. death  e–ter–nal–ly  Shall   be  your  des –ti –ny,    'scape for life,  'scape for life, Shall   be   your  des  – ti  – ny,    'scape  for  life." A2 A2 c2 e2 | %12
 d4 e4 | d2 c2 A2 G2 | A4 A2 E2 | G4 G2 E2 | G4 A4 | c2 c2 A2 G2 | (A3 G) E2 G2 | A8 |] %20
V:4
 A,4 | E,2 E,2 C,2 B,,2 | A,,4 C,2 E,2 | G,4 G,2 A,2 | E,4 A,,4 | E,2 E,2 D,2 D,2 | C,4 A,,2 B,,2 | %7
 A,,8 | z4 G,,4 | A,,2 A,,2 C,2 A,,2 | D,4 G,4 | E,2 E,2 F,2 E,2 | D,4 E,4 | %13
"^_________________________________________________\nPossibly an arrangement by Carrell of an older folk hymn.\nSouthern Harmony (1835), No. 28, is a three-part reduction of the above." D,2 C,2 A,,2 D,2 | %14
 C,4 C,2 E,2 | G,4 G,2 A,2 | E,4 A,,4 | E,2 E,2 D,2 D,2 | C,4 A,,2 B,,2 | A,,8 |] %20

